app/assets/img/checkstatus.svg

<svg width="40" height="40" viewBox="0 0 40 40" fill="none" xmlns="http://www.w3.org/2000/svg">
<g id="ic/checkstatus">
<rect id="back" width="40" height="40" rx="20" fill="#FF3E79"/>
<path id="icon" fill-rule="evenodd" clip-rule="evenodd" d="M12 11C12 10.4477 12.4477 10 13 10H27C27.5523 10 28 10.4477 28 11V28.5C27.1716 28.5 26.5 29.1715 26.5 29.9999H25.5C25.5 29.1715 24.8284 28.5 24 28.5C23.1716 28.5 22.5 29.1715 22.5 29.9999H21.5C21.5 29.1715 20.8284 28.5 20 28.5C19.1716 28.5 18.5 29.1715 18.5 29.9999H17.5C17.5 29.1715 16.8284 28.5 16 28.5C15.1716 28.5 14.5 29.1715 14.5 29.9999H13.5C13.5 29.1715 12.8284 28.5 12 28.5V11ZM21.4163 21.7884C20.5536 22.3443 19.4703 22.5936 18.3296 22.3827C16.5274 22.0472 15.0895 20.5326 14.8595 18.7114C14.4952 15.8261 16.9492 13.4201 19.8538 13.8802C21.656 14.1677 23.1034 15.6439 23.4006 17.4365C23.5828 18.5484 23.3239 19.5741 22.7871 20.4272L24.896 22.5265C25.2699 22.9003 25.2699 23.5138 24.896 23.8876C24.5126 24.2711 23.8991 24.2711 23.5252 23.8972L21.4163 21.7884ZM16.7058 18.0588C16.7058 16.7599 17.7599 15.7058 19.0588 15.7058C20.3576 15.7058 21.4117 16.7599 21.4117 18.0588C21.4117 19.3576 20.3576 20.4117 19.0588 20.4117C17.7599 20.4117 16.7058 19.3576 16.7058 18.0588Z" fill="white"/>
</g>
</svg>

<svg width="40" height="40" fill="none" xmlns="http://www.w3.org/2000/svg"><rect width="40" height="40" rx="20" fill="#FF3E79"/><path fill-rule="evenodd" clip-rule="evenodd" d="M12 11a1 1 0 0 1 1-1h14a1 1 0 0 1 1 1v17.5a1.5 1.5 0 0 0-1.5 1.5h-1a1.5 1.5 0 0 0-3 0h-1a1.5 1.5 0 0 0-3 0h-1a1.5 1.5 0 0 0-3 0h-1a1.5 1.5 0 0 0-1.5-1.5V11Zm9.416 10.788a4.236 4.236 0 0 1-3.086.595c-1.803-.336-3.24-1.85-3.47-3.672a4.318 4.318 0 0 1 4.994-4.83c1.802.287 3.25 1.763 3.547 3.555a4.247 4.247 0 0 1-.614 2.991l2.109 2.1a.97.97 0 0 1-1.37 1.37l-2.11-2.109Zm-4.71-3.73a2.354 2.354 0 1 1 4.707.002 2.354 2.354 0 0 1-4.707-.001Z" fill="#fff"/></svg>
